X: 27123
T: Miss Mary Walker
R: reel
M: 4/4
K: Gminor
|~B2 dB ecAc|ABdf bfdB|e2 Ge ~d2 Fd|~c2 Ec BAGA|
~B2 dB ecAc|ABdf bfdB|egce dfBd|cf=ef af_ec||
~B2 bB aBgB|~f2 =ef afdB|AFeF dFcF|ABcd ecAc|
~B2 bB aBgB|f2 =ef afdB|egce dfBd|cf=ef af_ec||

